Vector-1.svg

<svg width="1920" height="2549" fill="none" xmlns="http://www.w3.org/2000/svg"><path d="M-79 2548c1.134-53.5 5.362-106.47 25.055-154.25C-.45 2263.96 71.113 2136.18 154.77 2037.12c50.422-59.71 114.168-98.1 169.063-150.11 64.317-60.94 128.684-128.68 176.604-212.25 44.291-77.25 80.988-159.11 114.33-245.08 35.465-91.46 67.541-190.87 117.736-270.58 90.789-144.18 228.308-166.913 343.478-263.25 48.28-40.389 87.14-106.643 123.09-164.132 59.85-95.724 113.62-194.484 180.01-283.007 58.72-78.316 119.18-144.482 190.71-202.376 57.83-46.806 118.52-75.166 180.5-108.996 138.29-75.497 132.32-325.346 262.71-416.862 54.68-38.375 131.83-38.437 192.17-42.069 98.46-5.925 196.59-17.247 294.83-27.408" stroke="#000" stroke-opacity=".45" stroke-linecap="round"/></svg>

<svg width="1920" height="2549" viewBox="0 0 1920 2549" fill="none" xmlns="http://www.w3.org/2000/svg">
<path d="M-79 2548C-77.8657 2494.5 -73.638 2441.53 -53.9446 2393.75C-0.450956 2263.96 71.1129 2136.18 154.769 2037.12C205.191 1977.41 268.937 1939.02 323.832 1887.01C388.149 1826.07 452.516 1758.33 500.436 1674.76C544.727 1597.51 581.424 1515.65 614.766 1429.68C650.231 1338.22 682.307 1238.81 732.502 1159.1C823.291 1014.92 960.81 992.187 1075.98 895.85C1124.26 855.461 1163.12 789.207 1199.07 731.718C1258.92 635.994 1312.69 537.234 1379.08 448.711C1437.8 370.395 1498.26 304.229 1569.79 246.335C1627.62 199.529 1688.31 171.169 1750.29 137.339C1888.58 61.8421 1882.61 -188.007 2013 -279.523C2067.68 -317.898 2144.83 -317.96 2205.17 -321.592C2303.63 -327.517 2401.76 -338.839 2500 -349" stroke="black" stroke-opacity="0.45" stroke-linecap="round"/>
</svg>
